icons/qwik/qwik-plain-wordmark.svg

<svg xmlns="http://www.w3.org/2000/svg" viewBox="0 0 128 128">
  <path style="stroke:none;fill-rule:nonzero;fill:rgb(9.411765%,71.372549%,96.470588%);fill-opacity:1;" d="M 106.40234 47.433594 C 106.23828 47.433594 106.10938 47.566406 106.10938 47.730469 L 106.10938 74.074219 C 106.10938 74.234375 106.23828 74.367188 106.40234 74.367188 L 110.97656 74.367188 C 111.14063 74.367188 111.26953 74.234375 111.26953 74.074219 L 111.26953 64.867188 C 111.40234 64.980469 111.55469 65.125 111.73047 65.308594 C 112.11719 65.722657 112.59766 66.308593 113.17969 67.089844 C 114.34766 68.652346 115.92968 70.976557 118.06641 74.230469 C 118.12109 74.316406 118.21484 74.367188 118.31641 74.367188 L 123.57031 74.367188 C 123.62109 74.367188 123.67578 74.351563 123.71875 74.324219 C 123.76563 74.300781 123.80078 74.261719 123.82812 74.214844 C 123.85547 74.167969 123.86719 74.117188 123.86719 74.066406 C 123.86328 74.011719 123.85156 73.960938 123.82422 73.917969 C 122.09375 71.050777 120.53125 68.718753 119.26953 67.015625 C 118.64062 66.167967 118.08203 65.472657 117.61328 64.945312 C 117.35156 64.644531 117.07031 64.355469 116.76953 64.089844 C 117.39453 63.527343 118.19531 62.636721 119.17188 61.425781 C 120.59766 59.621091 121.97265 57.769534 123.28516 55.882812 C 123.32422 55.839844 123.35156 55.789063 123.35938 55.730469 C 123.37109 55.671875 123.36328 55.613281 123.33984 55.5625 C 123.31641 55.507813 123.28125 55.464844 123.23047 55.433594 C 123.18359 55.398437 123.12891 55.382812 123.07031 55.382812 L 123.06641 55.382812 L 123.06641 55.386719 L 117.77734 55.386719 C 117.67969 55.386719 117.58984 55.433594 117.53516 55.511719 C 116.15234 57.515628 114.71485 59.484372 113.22656 61.410156 C 112.39844 62.457033 111.75 63.207031 111.26953 63.671875 L 111.26953 47.730469 C 111.26953 47.566406 111.14063 47.433594 110.97656 47.433594 L 106.40234 47.433594 z M 99.207031 48.003906 C 98.203123 48.003906 97.453126 48.109374 96.964844 48.523438 C 96.460937 48.953126 96.320312 49.64453 96.320312 50.570312 C 96.320312 51.601564 96.45703 52.355468 96.949219 52.832031 C 97.441407 53.304688 98.199217 53.421875 99.207031 53.421875 C 100.21094 53.421875 100.97266 53.304688 101.46484 52.832031 C 101.95703 52.355468 102.09375 51.601564 102.09375 50.570312 C 102.09375 49.64453 101.95313 48.953126 101.44922 48.523438 C 100.96094 48.109374 100.20703 48.003906 99.207031 48.003906 z M 24.277344 48.675781 L 21.484375 48.753906 L 13.152344 48.777344 C 12.378907 48.78125 11.621093 48.988281 10.949219 49.375 C 10.28125 49.761719 9.7226559 50.316407 9.3320312 50.984375 L 4.2695312 61.039062 L 4.2773438 61.029297 C 3.3603587 62.468054 3.2943283 64.397074 4.1757812 65.875 L 9.4648438 74.648438 C 10.273437 75.992186 11.542971 76.855469 13.316406 76.792969 C 17.066402 76.660156 18.71875 76.660156 18.71875 76.660156 L 30.230469 80.964844 L 30.164062 80.898438 C 30.367188 81.089843 30.695312 80.859374 30.558594 80.617188 L 27.597656 74.785156 L 33.09375 64.832031 C 33.929687 63.113283 34.226561 61.609374 33.402344 60.097656 L 32.234375 57.945312 L 31.628906 56.839844 L 31.390625 56.40625 L 31.371094 56.433594 L 28.1875 50.910156 C 27.792969 50.226563 27.222656 49.656249 26.535156 49.261719 C 25.847657 48.871094 25.070311 48.667969 24.277344 48.675781 z M 13.328125 49.765625 L 25.214844 62.835938 L 23.085938 64.992188 L 24.351562 75.152344 L 12.054688 62.988281 L 15.09375 60.058594 L 13.308594 49.816406 L 7.3300781 57.230469 L 13.328125 49.765625 z M 54.90625 54.878906 C 51.773433 54.878906 49.445315 55.609373 47.964844 57.167969 L 47.960938 57.171875 C 46.515623 58.730471 45.832031 61.417963 45.832031 65 C 45.832031 68.574224 46.402342 71.152341 47.621094 72.640625 C 48.851564 74.136721 50.785152 74.832031 53.320312 74.832031 C 54.99219 74.851563 56.63281 74.398439 58.0625 73.535156 L 58.0625 80.980469 C 58.0625 81.144531 58.199218 81.277344 58.359375 81.277344 L 62.929688 81.277344 C 63.09375 81.277344 63.226563 81.144531 63.226562 80.980469 L 63.226562 56.363281 C 63.226562 56.300781 63.207031 56.238281 63.171875 56.1875 C 63.132812 56.140625 63.082031 56.101563 63.023438 56.082031 C 60.542965 55.277343 57.847661 54.878906 54.90625 54.878906 z M 64.839844 55.386719 C 64.789062 55.386719 64.742188 55.398437 64.703125 55.417969 C 64.660156 55.441406 64.625 55.472656 64.597656 55.511719 C 64.570313 55.550781 64.550781 55.597656 64.546875 55.644531 C 64.539062 55.691406 64.546875 55.738281 64.5625 55.785156 C 66.644534 61.351571 68.585935 67.460927 70.382812 74.144531 C 70.402344 74.207031 70.4375 74.261719 70.488281 74.300781 C 70.542969 74.339844 70.605469 74.363281 70.667969 74.363281 L 76.027344 74.363281 C 76.15625 74.363281 76.265625 74.285156 76.308594 74.164062 C 77.574221 70.613276 78.652342 66.996099 79.542969 63.328125 C 80.687502 67.542975 81.55078 71.124996 82.105469 74.121094 C 82.121094 74.191406 82.15625 74.25 82.210938 74.296875 C 82.261719 74.339844 82.328125 74.363281 82.398438 74.363281 L 87.761719 74.363281 C 87.820312 74.363281 87.875 74.347656 87.925781 74.3125 C 87.972656 74.28125 88.011719 74.234375 88.035156 74.179688 C 90.453129 68.144522 92.582028 62.000009 94.414062 55.765625 C 94.425781 55.71875 94.425781 55.671875 94.417969 55.628906 C 94.410156 55.582031 94.394531 55.539063 94.363281 55.503906 C 94.335938 55.46875 94.300781 55.4375 94.261719 55.417969 C 94.21875 55.394531 94.175781 55.386719 94.128906 55.386719 L 89.632812 55.386719 C 89.566406 55.386719 89.5 55.40625 89.449219 55.445312 C 89.398437 55.488281 89.359375 55.542969 89.34375 55.609375 C 88.371092 59.437506 87.082034 63.609368 85.449219 68.160156 C 84.464842 63.914056 83.277346 59.718756 81.886719 55.585938 C 81.867187 55.527344 81.828125 55.476563 81.777344 55.441406 C 81.726562 55.40625 81.667969 55.386719 81.605469 55.386719 L 77.609375 55.386719 C 77.472656 55.386719 77.351562 55.476562 77.324219 55.613281 C 76.296873 59.855475 75.082034 64.050775 73.683594 68.1875 C 72.554686 63.945306 71.250002 59.753913 69.769531 55.625 C 69.757813 55.554687 69.722656 55.496094 69.667969 55.453125 C 69.613281 55.410156 69.546875 55.382813 69.480469 55.386719 L 69.476562 55.386719 L 64.839844 55.386719 z M 96.984375 55.390625 C 96.945312 55.382813 96.902344 55.382813 96.859375 55.394531 C 96.816406 55.40625 96.78125 55.429687 96.746094 55.457031 C 96.714844 55.484375 96.6875 55.519531 96.671875 55.558594 C 96.652344 55.597656 96.644531 55.636719 96.644531 55.679688 L 96.644531 55.683594 L 96.640625 55.683594 L 96.640625 74.074219 C 96.640625 74.234375 96.773437 74.367188 96.9375 74.367188 L 101.50781 74.367188 C 101.67188 74.367188 101.80469 74.234375 101.80469 74.074219 L 101.80469 55.683594 C 101.80469 55.519531 101.67188 55.390625 101.50781 55.390625 L 96.984375 55.390625 z M 54.90625 59.183594 C 56.053254 59.183594 57.102523 59.30538 58.058594 59.570312 L 58.058594 68.636719 C 58.058594 68.996094 57.789063 69.382812 57.191406 69.699219 C 56.605468 70.007813 55.765627 70.210938 54.792969 70.210938 C 53.28906 70.210938 52.359376 69.82422 51.828125 69.136719 C 51.558593 68.792968 51.347656 68.277345 51.203125 67.558594 C 51.058593 66.843749 50.988281 65.945314 50.988281 64.855469 C 50.988281 63.699217 51.070312 62.742189 51.222656 61.972656 C 51.375 61.20703 51.597656 60.648438 51.867188 60.28125 C 52.398438 59.566405 53.394529 59.183594 54.90625 59.183594 z M 24.375 75.195312 L 24.375 75.220703 L 24.363281 75.222656 L 24.363281 75.210938 L 24.375 75.195312 z " />
</svg>

<svg xmlns="http://www.w3.org/2000/svg" viewBox="0 0 128 128"><path d="M106.402 47.434a.293.293 0 00-.293.296v26.344c0 .16.13.293.293.293h4.575a.293.293 0 00.293-.293v-9.207c.132.113.285.258.46.442.387.414.868 1 1.45 1.78 1.168 1.563 2.75 3.888 4.886 7.141a.295.295 0 00.25.137h5.254c.051 0 .106-.015.149-.043a.268.268 0 00.11-.11.291.291 0 00-.005-.296c-1.73-2.867-3.293-5.2-4.554-6.902a30.935 30.935 0 00-1.657-2.07c-.261-.301-.543-.59-.843-.856.625-.563 1.425-1.453 2.402-2.664 1.426-1.805 2.8-3.656 4.113-5.543a.28.28 0 00.074-.153.273.273 0 00-.02-.167.271.271 0 00-.109-.13.26.26 0 00-.16-.05h-.004v.004h-5.289a.294.294 0 00-.242.125 135.53 135.53 0 01-4.308 5.898c-.829 1.047-1.477 1.797-1.957 2.262V47.73a.293.293 0 00-.293-.296h-4.575zm-7.195.57c-1.004 0-1.754.105-2.242.52-.504.43-.645 1.12-.645 2.046 0 1.032.137 1.785.63 2.262.491.473 1.25.59 2.257.59 1.004 0 1.766-.117 2.258-.59.492-.477.629-1.23.629-2.262 0-.925-.14-1.617-.645-2.047-.488-.414-1.242-.52-2.242-.52zm-74.93.672l-2.793.078-8.332.023a4.46 4.46 0 00-3.82 2.207L4.27 61.04l.007-.01c-.917 1.44-.983 3.368-.101 4.846l5.289 8.773c.808 1.344 2.078 2.207 3.851 2.145 3.75-.133 5.403-.133 5.403-.133l11.511 4.305-.066-.067c.203.192.531-.039.395-.28l-2.961-5.833 5.496-9.953c.836-1.719 1.133-3.223.308-4.734l-1.168-2.153-.605-1.105-.238-.434-.02.028-3.183-5.524a4.49 4.49 0 00-1.653-1.648 4.478 4.478 0 00-2.258-.586zm-10.949 1.09l11.887 13.07-2.13 2.156 1.267 10.16-12.297-12.164 3.039-2.93-1.785-10.242L7.33 57.23l5.998-7.464zm41.578 5.113c-3.133 0-5.46.73-6.941 2.289l-.004.004c-1.445 1.558-2.129 4.246-2.129 7.828 0 3.574.57 6.152 1.79 7.64 1.23 1.497 3.163 2.192 5.698 2.192a8.973 8.973 0 004.742-1.297v7.445a.3.3 0 00.297.297h4.57a.297.297 0 00.298-.297V56.363a.312.312 0 00-.055-.175.335.335 0 00-.149-.106c-2.48-.805-5.175-1.203-8.117-1.203zm9.934.508a.306.306 0 00-.137.031.305.305 0 00-.156.227.29.29 0 00.016.14c2.082 5.567 4.023 11.676 5.82 18.36a.31.31 0 00.105.156c.055.039.117.062.18.062h5.36a.295.295 0 00.28-.199 108.578 108.578 0 003.235-10.836c1.145 4.215 2.008 7.797 2.562 10.793.016.07.051.129.106.176a.29.29 0 00.187.066h5.364a.28.28 0 00.164-.05.305.305 0 00.11-.133 204.665 204.665 0 006.378-18.414.325.325 0 00.004-.137.242.242 0 00-.055-.125.306.306 0 00-.101-.086.266.266 0 00-.133-.031h-4.496a.303.303 0 00-.184.058.308.308 0 00-.105.164c-.973 3.829-2.262 8-3.895 12.551a135.076 135.076 0 00-3.562-12.574.3.3 0 00-.281-.2h-3.997a.285.285 0 00-.285.227 148.138 148.138 0 01-3.64 12.575 156.324 156.324 0 00-3.914-12.563.27.27 0 00-.102-.172.283.283 0 00-.188-.066h-4.64zm32.144.004a.272.272 0 00-.125.004.323.323 0 00-.113.062.274.274 0 00-.074.102.262.262 0 00-.027.12v.005h-.004v18.39c0 .16.132.293.296.293h4.57a.296.296 0 00.298-.293v-18.39a.293.293 0 00-.297-.293h-4.524zm-42.078 3.793c1.147 0 2.197.121 3.153.386v9.067c0 .36-.27.746-.868 1.062-.586.309-1.425.512-2.398.512-1.504 0-2.434-.387-2.965-1.074-.27-.344-.48-.86-.625-1.578-.144-.715-.215-1.614-.215-2.704 0-1.156.082-2.113.235-2.882.152-.766.375-1.325.644-1.692.531-.715 1.528-1.097 3.04-1.097zM24.375 75.195v.026l-.012.002v-.012l.012-.016z" fill="#18b6f6"/></svg>
